home-group-plus.svg

<svg fill="currentColor" viewBox="0 0 24 24"><path d="M2 6H1l4-4 4 4H8v3H6V6H4v3H2zm11 4.9 1.3 1.1H16V9h2v3h3V8h1l-5-5-5 5h1zm.8 11.1c-.5-.9-.8-1.9-.8-3 0-1.6.6-3.1 1.7-4.1L9 10l-7 6h2v6h3v-5h4v5zm4.2-7v3h-3v2h3v3h2v-3h3v-2h-3v-3z"/></svg>

<svg  viewBox="0 0 24 24" fill="currentColor"><path  d="M2 6H1L5 2L9 6H8V9H6V6H4V9H2V6M13 10.9L14.3 12H16V9H18V12H21V8H22L17 3L12 8H13V10.9M13.8 22C13.3 21.1 13 20.1 13 19C13 17.4 13.6 15.9 14.7 14.9L9 10L2 16H4V22H7V17H11V22H13.8M18 15V18H15V20H18V23H20V20H23V18H20V15H18Z"/></svg>
